!!!COM:	Bach, Johann Sebastian
!!!OMV:	Hilf, Herr Jesu, la&szlig; gelingen
!!!OTL:	Hilf, Herr Jesu, la&szlig; gelingen
**kern	**kern	**kern	**kern	**kern	**kern	**kern	**kern	**kern	**kern	**fb	**kern	**kern
*part12	*part11	*part10	*part9	*part8	*part7	*part6	*part5	*part4	*part3	*part3	*part2	*part1
*staff12	*staff11	*staff10	*staff9	*staff8	*staff7	*staff6	*staff5	*staff4	*staff3	*	*staff2	*staff1
*I"Continuo	*I"Voice	*I"Voice	*I"Voice	*I"Voice	*I"Viola	*I"Violin	*I"Violin	*I"Oboe	*I"Oboe	*	*I"Corno da caccia	*I"Corno da caccia
*I'Cont.	*I'V	*I'V	*I'V	*I'V	*I'Vla.	*I'Vln.	*I'Vln.	*I'Ob.	*I'Ob.	*	*I'C Ca.	*I'C. Ca.
*clefF4	*clefF4	*clefGv2	*clefG2	*clefG2	*clefC3	*clefG2	*clefG2	*clefG2	*clefG2	*	*clefG2	*clefG2
*Trd0c0	*	*	*	*	*	*	*	*	*	*	*	*
*k[b-]	*k[b-]	*k[b-]	*k[b-]	*k[b-]	*k[b-]	*k[b-]	*k[b-]	*k[b-]	*k[b-]	*	*k[b-]	*k[b-]
*M3/4	*M3/4	*M3/4	*M3/4	*M3/4	*M3/4	*M3/4	*M3/4	*M3/4	*M3/4	*	*M3/4	*M3/4
=	=	=	=	=	=	=	=	=	=	=	=	=
4F	2.r	2.r	2.r	2.r	4r	4r	4r	2.r	2.r	.	8r	8r
.	.	.	.	.	.	.	.	.	.	.	16aLL	16ccLL
.	.	.	.	.	.	.	.	.	.	.	16gJJ	16b-JJ
4r	.	.	.	.	8r	8r	8r	.	.	.	8aL	8ccL
.	.	.	.	.	16fLL	16fLL	16fLL	.	.	.	8b-J	8ddJ
.	.	.	.	.	16eJJ	16eJJ	16eJJ	.	.	.	.	.
4r	.	.	.	.	8fL	8fL	8fL	.	.	.	8b-L	8ddL
.	.	.	.	.	8fJ	8fJ	8fJ	.	.	.	8gJ	8b-J
=3!|:	=3!|:	=3!|:	=3!|:	=3!|:	=3!|:	=3!|:	=3!|:	=3!|:	=3!|:	=3!|:	=3!|:	=3!|:
4FF	2.r	2.r	2.r	2.r	8fL	8fL	8fL	2.r	2.r	.	8aL	8ccL
.	.	.	.	.	8cJ	8cJ	8cJ	.	.	.	8fJ	8aJ
4r	.	.	.	.	8r	8r	8r	.	.	.	8fL	8aL
.	.	.	.	.	16cLL	16cLL	16cLL	.	.	.	8gJ	8b-J
.	.	.	.	.	16B-JJ	16B-JJ	16B-JJ	.	.	.	.	.
4r	.	.	.	.	8cL	8cL	8cL	.	.	.	8gL	8b-L
.	.	.	.	.	8cJ	8cJ	8cJ	.	.	.	8cJ	8gJ
=4	=4	=4	=4	=4	=4	=4	=4	=4	=4	=4	=4	=4
8FL	2.r	2.r	2.r	2.r	8cL	8cL	8cL	8r	8r	.	8fL	4.a
16AL	.	.	.	.	8AJ	8AJ	8AJ	16ffLL	16ffLL	.	16ccL	.
16GJJ	.	.	.	.	.	.	.	16eeJJ	16eeJJ	.	16b-JJ	.
8FL	.	.	.	.	4r	4r	8r	8ffL	8ffL	.	8ccL	.
8EJ	.	.	.	.	.	.	16aaLL	16aaL	16aaL	.	8cJ	16ffLL
.	.	.	.	.	.	.	16ggJJ	16ggJJ	16ggJJ	.	.	16eeJJ
8DL	.	.	.	.	8r	8r	8aaL	8aaL	8aaL	.	[4f	8ffL
8CJ	.	.	.	.	8a	16ffLL	8ddJ	8ddJ	8ddJ	.	.	8aJ
.	.	.	.	.	.	16eeJJ	.	.	.	.	.	.
=5	=5	=5	=5	=5	=5	=5	=5	=5	=5	=5	=5	=5
!!pagebreak:original
8BB-L	2.r	2.r	2.r	2.r	4dd	4ff	8ddL	8ddL	8ddL	.	8fL]	4.g
8GGJ	.	.	.	.	.	.	16ggL	16ggL	16ggL	.	16b-L	.
.	.	.	.	.	.	.	16ffJJ	16ffJJ	16ffJJ	.	16aJJ	.
4C	.	.	.	.	4r	4r	8ggL	8ggL	8ggL	.	8b-L	.
.	.	.	.	.	.	.	8eeJ	8eeJ	8eeJ	.	8cJ	16ccLL
.	.	.	.	.	.	.	.	.	.	.	.	16b-JJ
4CC	.	.	.	.	8r	8r	8eeL	8eeL	8eeL	.	8cL	16ccLL
.	.	.	.	.	.	.	.	.	.	.	.	16b-
.	.	.	.	.	8g	8cc	8ffJ	8ffJ	8ffJ	.	8cJ	16a
.	.	.	.	.	.	.	.	.	.	.	.	16gJJ
=6	=6	=6	=6	=6	=6	=6	=6	=6	=6	=6	=6	=6
8FFL	8FL	4f	4a	4cc	8aL	8ccL	8ffL	8ffL	8ffL	.	4A	4f
8GGJ	8GJ	.	.	.	8fJ	8aJ	8ccJ	8ccJ	8ccJ	.	.	.
.	.	.	.	.	.	.	8qqb-/	8qqb-/	8qqb-/	6	.	.
8AAL	4A	2c	2f	2a	2c	[2f	2a	2a	2a	.	4r	4r
8GGJ	.	.	.	.	.	.	.	.	.	.	.	.
8AAL	4F	.	.	.	.	.	.	.	.	.	4r	4r
8FFJ	.	.	.	.	.	.	.	.	.	.	.	.
=7	=7	=7	=7	=7	=7	=7	=7	=7	=7	=7	=7	=7
8CL	2C	4.c	4f	2g	4.c	4f]	2g	2g	2g	.	2.r	2.r
8BB-J	.	.	.	.	.	.	.	.	.	.	.	.
8CL	.	.	4e	.	.	4e	.	.	.	.	.	.
8CCJ	.	8B-	.	.	8B-	.	.	.	.	.	.	.
8DDL	4D	4A	4f	4f	4A	4f	4f	4f	4f	.	.	.
8DJ	.	.	.	.	.	.	.	.	.	.	.	.
=8	=8	=8	=8	=8	=8	=8	=8	=8	=8	=8	=8	=8
8GL	8GL	2B-	4d	4b-	2B-	4d	4b-	4b-	4b-	.	2.r	2.r
8FJ	8FJ	.	.	.	.	.	.	.	.	.	.	.
8E-XL	4E-X	.	4g	4.cc	.	4g	4.cc	4.cc	4.cc	.	.	.
8CJ	.	.	.	.	.	.	.	.	.	.	.	.
8FL	4F	8A	4f	.	8AL	4f	.	.	.	.	.	.
8FFJ	.	16B-LL	.	16ddLL	16B-L	.	16ddLL	16ddLL	16ddLL	.	.	.
.	.	16cJJ	.	16ee-XJJ	16cJJ	.	16ee-XJJ	16ee-XJJ	16ee-XJJ	.	.	.
=9	=9	=9	=9	=9	=9	=9	=9	=9	=9	=9	=9	=9
8BB-L	8BB-L	4c	2.f	2.dd	4c	2.f	2.dd	2.dd	2.dd	.	2.r	2.r
8CJ	8CJ	.	.	.	.	.	.	.	.	.	.	.
8DL	4D	8B-L	.	.	8B-L	.	.	.	.	.	.	.
8CJ	.	8AJ	.	.	8AJ	.	.	.	.	.	.	.
8DL	4BB-	4B-	.	.	4B-	.	.	.	.	.	.	.
8BB-J	.	.	.	.	.	.	.	.	.	.	.	.
=10	=10	=10	=10	=10	=10	=10	=10	=10	=10	=10	=10	=10
!!pagebreak:original
4F	2F	2A	2f	2cc	4A	4f	4cc	8ccL	8ccL	.	4r	4r
.	.	.	.	.	.	.	.	16ccL	16aaL	.	.	.
.	.	.	.	.	.	.	.	16b-JJ	16ggJJ	.	.	.
4r	.	.	.	.	2r	2r	2r	8ccL	8aaL	.	8r	8r
.	.	.	.	.	.	.	.	8ddJ	8bb-J	.	16fLL	16fLL
.	.	.	.	.	.	.	.	.	.	.	16fJJ	16fJJ
4r	4r	4r	4r	4r	.	.	.	8ddL	8bb-L	.	8fL	8fL
.	.	.	.	.	.	.	.	8b-J	8ggJ	.	8fJ	8fJ
=11	=11	=11	=11	=11	=11	=11	=11	=11	=11	=11	=11	=11
4FF	2.r	2.r	2.r	2.r	2.r	2.r	2.r	8ccL	8aaL	.	8fL	8fL
.	.	.	.	.	.	.	.	8aJ	8ffJ	.	8cJ	8cJ
4r	.	.	.	.	.	.	.	8aL	8ffL	.	8r	8r
.	.	.	.	.	.	.	.	8b-J	8ggJ	.	16cLL	16cLL
.	.	.	.	.	.	.	.	.	.	.	16cJJ	16cJJ
4r	.	.	.	.	.	.	.	8b-L	8ggL	.	8cL	8cL
.	.	.	.	.	.	.	.	8gJ	8eeJ	.	8cJ	8cJ
=12	=12	=12	=12	=12	=12	=12	=12	=12	=12	=12	=12	=12
8FL	2.r	2.r	2.r	2.r	8r	8r	8r	8aL	4ff	.	8cL	8cL
16AL	.	.	.	.	16fLL	16ccLL	16ffLL	16ccL	.	.	8AJ	8AJ
16GJJ	.	.	.	.	16gJJ	16b-JJ	16eeJJ	16b-JJ	.	.	.	.
8FL	.	.	.	.	8aL	8aL	8ffL	8aL	8r	.	4r	8r
8EJ	.	.	.	.	8AJ	8ccJ	16aaL	8ccJ	16aaLL	.	.	16ffLL
.	.	.	.	.	.	.	16ggJJ	.	16ggJJ	.	.	16eeJJ
8DL	.	.	.	.	8dL	[4ff	8aaL	[4ff	8aaL	.	[4f	8ffL
8CJ	.	.	.	.	8fJ	.	8ddJ	.	8ddJ	.	.	8aJ
=13	=13	=13	=13	=13	=13	=13	=13	=13	=13	=13	=13	=13
8BB-L	2.r	2.r	2.r	2.r	8gL	8ffL]	8ddL	8ffL]	8ddL	.	8fL]	4.g
8GGJ	.	.	.	.	8b-J	16eeL	16ggL	16eeL	16ggL	.	16b-L	.
.	.	.	.	.	.	16ddJJ	16ffJJ	16ddJJ	16ffJJ	.	16aJJ	.
8EEL	.	.	.	.	4e	4.cc#X	8ggL	4.cc#X	8ggL	.	8b-L	.
16AAL	.	.	.	.	.	.	8eeJ	.	8eeJ	.	8aJ	16aLL
16GGJJ	.	.	.	.	.	.	.	.	.	.	.	16b-JJ
8AAL	.	.	.	.	4a	.	8eeL	.	8eeL	.	8AL	8aL
8AAJ	.	.	.	.	.	8dd	8ffJ	8dd	8ffJ	.	8AJ	8gJ
=14	=14	=14	=14	=14	=14	=14	=14	=14	=14	=14	=14	=14
8DDL	4D	4f	4a	4dd	8aL	8ddL	8ffL	8ddL	8ffL	.	4A	4f
8DJ	.	.	.	.	8fJ	8aJ	8ddJ	8aJ	16ddL	.	.	.
.	.	.	.	.	.	.	.	.	16ccJJ	.	.	.
.	.	.	.	.	.	.	8qqcc/	.	.	.	.	.
8GL	4G	2d	2g	2b-	2d	[2g	2b-	2b-	2b-	.	2r	4r
8AJ	.	.	.	.	.	.	.	.	.	.	.	.
8GL	4F	.	.	.	.	.	.	.	.	.	.	4r
8FJ	.	.	.	.	.	.	.	.	.	.	.	.
=15	=15	=15	=15	=15	=15	=15	=15	=15	=15	=15	=15	=15
!!pagebreak:original
8EL	4E	8cL	4g	2cc	8cL	4g]	2cc	2cc	2cc	.	2.r	2.r
8CJ	.	8B-J	.	.	8B-J	.	.	.	.	.	.	.
8FL	8FL	4A	4f	.	2A	[2f	.	.	.	.	.	.
8EJ	8EJ	.	.	.	.	.	.	.	.	.	.	.
8DL	8DL	4A	4f	4f	.	.	4f	4f	4f	.	.	.
8CJ	8CJ	.	.	.	.	.	.	.	.	.	.	.
=16	=16	=16	=16	=16	=16	=16	=16	=16	=16	=16	=16	=16
8DL	8DL	8dL	8fL	4b-	8dL	8fL]	4b-	4b-	4b-	.	2.r	2.r
8EJ	8EJ	8cJ	8gJ	.	8cJ	[8gJ	.	.	.	.	.	.
8FL	4F	2c	4g	2a	2c	8gL]	2a	2a	2a	.	.	.
8EJ	.	.	.	.	.	8cJ	.	.	.	.	.	.
8FL	4F	.	4f	.	.	4f	.	.	.	.	.	.
8FFJ	.	.	.	.	.	.	.	.	.	.	.	.
=17	=17	=17	=17	=17	=17	=17	=17	=17	=17	=17	=17	=17
8CL	2.C	2.c	2.e	2.g	4c	4e	4g	4g	4g	.	8r	8r
16EL	.	.	.	.	.	.	.	.	.	.	16cLL	16gLL
16DJJ	.	.	.	.	.	.	.	.	.	.	16cJJ	16fJJ
8EL	.	.	.	.	8r	8r	8r	8r	8r	.	8cL	8gL
8GJ	.	.	.	.	16cLL	16cLL	16cLL	16eeLL	16ggLL	.	8gJ	8b-J
.	.	.	.	.	16cJJ	16cJJ	16cJJ	16ddJJ	16ffJJ	.	.	.
8cL	.	.	.	.	8cL	8cL	8cL	8eeL	8ggL	.	8gL	8b-L
8CJ	.	.	.	.	8cJ	8cJ	8cJ	8ffJ	8aaJ	.	8fJ	8aJ
=18	=18	=18	=18	=18	=18	=18	=18	=18	=18	=18	=18	=18
4F	2.r	2.r	2.r	2.r	8cL	8cL	8cL	8ff	8aa	.	8fL	8aL
.	.	.	.	.	8fJ	8fJ	8fJ	8r	8r	.	16aL	16ccL
.	.	.	.	.	.	.	.	.	.	.	16gJJ	16b-JJ
4r	.	.	.	.	8r	8r	8r	4r	4r	.	8aL	8ccL
.	.	.	.	.	16fLL	16fLL	16fLL	.	.	.	8b-J	8ddJ
.	.	.	.	.	16eJJ	16eJJ	16eJJ	.	.	.	.	.
4r	.	.	.	.	8fL	8fL	8fL	4r	4r	.	8b-L	8ddL
.	.	.	.	.	8fJ	8fJ	8fJ	.	.	.	8gJ	8b-J
=19:|!	=19:|!	=19:|!	=19:|!	=19:|!	=19:|!	=19:|!	=19:|!	=19:|!	=19:|!	=19:|!	=19:|!	=19:|!
8FL	2.r	2.r	2.r	2.r	8cL	8cL	8cL	8ff	8aa	.	8fL	8aL
8AJ	.	.	.	.	8fJ	8fJ	8fJ	8r	8r	.	16fL	16aL
.	.	.	.	.	.	.	.	.	.	.	16eJJ	16gJJ
8DL	.	.	.	.	8r	8r	8r	8r	8r	.	8fL	8aL
8AJ	.	.	.	.	16dLL	16dLL	16dLL	16f#XLL	16aLL	.	8aJ	8ccJ
.	.	.	.	.	16dJJ	16dJJ	16dJJ	16eJJ	16gJJ	.	.	.
8dL	.	.	.	.	8dL	8dL	8dL	8f#L	8aL	.	8aL	8ccL
8DJ	.	.	.	.	8dJ	8dJ	8dJ	8gJ	8bnJ	.	8gJ	8bnJ
=20	=20	=20	=20	=20	=20	=20	=20	=20	=20	=20	=20	=20
!!pagebreak:original
8GL	2.r	2.r	2.r	2.r	8dL	8dL	8dL	8gL	8bnL	.	8g	8bn
8DJ	.	.	.	.	8gJ	8gJ	8gJ	16bnL	16ddL	.	8r	8r
.	.	.	.	.	.	.	.	16aJJ	16ccJJ	.	.	.
8GGL	.	.	.	.	8r	16gLL	8r	8bL	8ddL	.	8r	8r
.	.	.	.	.	.	16fJ	.	.	.	.	.	.
8DJ	.	.	.	.	16dLL	8gJ	16bnLL	8ddJ	8ffJ	.	16gLL	16gLL
.	.	.	.	.	16cJJ	.	16aJJ	.	.	.	16fJJ	16fJJ
8GL	.	.	.	.	8dL	8gL	8bL	8ddL	8ffL	.	8gL	8gL
8GGJ	.	.	.	.	8eJ	8gJ	8ccJ	8ccJ	8eeJ	.	8gJ	8gJ
=21	=21	=21	=21	=21	=21	=21	=21	=21	=21	=21	=21	=21
4C	2.r	2.r	2.r	2.r	4e	8gL	8ccL	4cc	4ee	.	8gL	8gL
.	.	.	.	.	.	16eeL	16ggL	.	.	.	8cJ	8cJ
.	.	.	.	.	.	16ddJJ	16ffJJ	.	.	.	.	.
4r	.	.	.	.	4r	8eeL	8ggL	8r	8r	.	8cL	8cL
.	.	.	.	.	.	8ffJ	8aaJ	16ccLL	16ccLL	.	8cJ	8cJ
.	.	.	.	.	.	.	.	16bnJJ	16bnJJ	.	.	.
4r	.	.	.	.	4r	8ffL	8aaL	8ccL	8ccL	.	8cL	8cL
.	.	.	.	.	.	8ddJ	8ffJ	8ccJ	8ccJ	.	8cJ	8cJ
=22	=22	=22	=22	=22	=22	=22	=22	=22	=22	=22	=22	=22
4CC	2.r	2.r	2.r	2.r	4g	8eeL	8ggL	8ccL	8ccL	.	8cL	8cL
.	.	.	.	.	.	8ccJ	8eeJ	8gJ	8gJ	.	8cJ	8cJ
4r	.	.	.	.	4r	8ccL	8eeL	8r	8r	.	8cL	8cL
.	.	.	.	.	.	8ddJ	8ffJ	16gLL	16gLL	.	8cJ	8cJ
.	.	.	.	.	.	.	.	16fJJ	16fJJ	.	.	.
4r	.	.	.	.	4r	8ddL	8ffL	8gL	8gL	.	8cL	8cL
.	.	.	.	.	.	8bnJ	8ddJ	8gJ	8gJ	.	8cJ	8cJ
=23	=23	=23	=23	=23	=23	=23	=23	=23	=23	=23	=23	=23
8CL	8CL	2c	8gL	4ee	8gL	2cc	4ee	8gL	8gL	.	4c	4c
8DJ	8DJ	.	8fJ	.	8fJ	.	.	8eJ	8eJ	.	.	.
8EL	4E	.	4g	2cc	4g	.	2cc	2cc	2cc	.	4r	4r
8DJ	.	.	.	.	.	.	.	.	.	.	.	.
8EL	4C	4e	4g	.	4e	[4g	.	.	.	.	4r	4r
8CJ	.	.	.	.	.	.	.	.	.	.	.	.
=24	=24	=24	=24	=24	=24	=24	=24	=24	=24	=24	=24	=24
8FL	8FL	2c	4g	2a	2c	4g]	2a	2a	2a	.	2.r	2.r
8EJ	8EJ	.	.	.	.	.	.	.	.	.	.	.
8FL	4F	.	4f	.	.	2f	.	.	.	.	.	.
8FFJ	.	.	.	.	.	.	.	.	.	.	.	.
8BB-L	4B-	[4B-	4f	4dd	[4B-	.	4dd	4dd	4dd	.	.	.
8B-J	.	.	.	.	.	.	.	.	.	.	.	.
=25	=25	=25	=25	=25	=25	=25	=25	=25	=25	=25	=25	=25
!!pagebreak:original
8EL	4E	4B-]	4g	4cc#X	4B-]	4g	4cc#X	4cc#X	4cc#X	.	2.r	2.r
8GJ	.	.	.	.	.	.	.	.	.	.	.	.
8FL	4F	4A	4a	4.dd	4A	4a	4.dd	4.dd	4.dd	.	.	.
8EJ	.	.	.	.	.	.	.	.	.	.	.	.
[4D	[4D	8dL	8b-L	.	8dL	8b-L	.	.	.	.	.	.
.	.	8cnJ	8aJ	16eeLL	8cJ	8aJ	16eeLL	16eeLL	16eeLL	.	.	.
.	.	.	.	16ffJJ	.	.	16ffJJ	16ffJJ	16ffJJ	.	.	.
=26	=26	=26	=26	=26	=26	=26	=26	=26	=26	=26	=26	=26
4D]	4D]	4B-	8gL	2.ee	4B-	8gL	2.ee	2.ee	2.ee	.	2.r	2.r
.	.	.	8fJ	.	.	8fJ	.	.	.	.	.	.
8C#XL	8C#XL	8AL	4.g	.	8AL	4.g	.	.	.	.	.	.
8BBnJ	8BBnJ	8GJ	.	.	8GJ	.	.	.	.	.	.	.
4C#	4C#	4A	.	.	4A	.	.	.	.	.	.	.
.	.	.	8e	.	.	8e	.	.	.	.	.	.
=27	=27	=27	=27	=27	=27	=27	=27	=27	=27	=27	=27	=27
4D	2D	2A	2f	2a	4d	4f	4a	8aL	8aL	.	2.r	2.r
.	.	.	.	.	.	.	.	16ffL	16aaL	.	.	.
.	.	.	.	.	.	.	.	16eeJJ	16ggJJ	.	.	.
4r	.	.	.	.	8r	8r	8r	8ffL	8aaL	.	.	.
.	.	.	.	.	16ddLL	16ddLL	16ddLL	8ggJ	8bb-J	.	.	.
.	.	.	.	.	16cc#XJJ	16cc#XJJ	16cc#XJJ	.	.	.	.	.
4r	4r	4r	4r	4r	8ddL	8ddL	8ddL	8ggL	8bb-L	.	.	.
.	.	.	.	.	8ddJ	8ddJ	8ddJ	8eeJ	8ggJ	.	.	.
=28	=28	=28	=28	=28	=28	=28	=28	=28	=28	=28	=28	=28
4DD	2.r	2.r	2.r	2.r	8ddL	8ddL	8ddL	8ffL	8aaL	.	2.r	4r
.	.	.	.	.	8aJ	16fL	16ddL	8ddJ	8ffJ	.	.	.
.	.	.	.	.	.	16eJJ	16cc#XJJ	.	.	.	.	.
4r	.	.	.	.	4r	8fL	8ddL	8r	8r	.	.	8r
.	.	.	.	.	.	8gJ	8eeJ	16cc#XLL	16eeLL	.	.	16ALL
.	.	.	.	.	.	.	.	16bnJJ	16ddJJ	.	.	16AJJ
4r	.	.	.	.	4r	8gL	8eeL	8cc#L	8eeL	.	.	8AL
.	.	.	.	.	.	8eJ	8cc#J	8eeJ	8ggJ	.	.	8AJ
=29	=29	=29	=29	=29	=29	=29	=29	=29	=29	=29	=29	=29
!!pagebreak:original
8DL	2.r	2.r	2.r	2.r	8r	4f	4dd	8ddL	8ffL	.	2.r	8AL
16FL	.	.	.	.	16aLL	.	.	16ddL	16ddL	.	.	8FJ
16EJJ	.	.	.	.	16gJJ	.	.	16ccJJ	16ccJJ	.	.	.
8DL	.	.	.	.	8fL	4r	8r	8ddL	8ddL	.	.	4r
8BB-J	.	.	.	.	8dJ	.	16dddLL	16ffL	16ffL	.	.	.
.	.	.	.	.	.	.	16cccJJ	16ee-XJJ	16ee-XJJ	.	.	.
8GGL	.	.	.	.	8B-L	8r	8dddL	8ffL	8ffL	.	.	4r
8GJ	.	.	.	.	16b-L	16ee-XLL	8ggJ	8b-J	8b-J	.	.	.
.	.	.	.	.	16aJJ	16ddJJ	.	.	.	.	.	.
=30	=30	=30	=30	=30	=30	=30	=30	=30	=30	=30	=30	=30
8CL	2.r	2.r	2.r	2.r	8gL	4ee-X	8ggL	8b-L	8b-L	.	2.r	4r
8BB-J	.	.	.	.	8GJ	.	16cccL	16ee-XL	16ee-XL	.	.	.
.	.	.	.	.	.	.	16bb-JJ	16ddJJ	16ddJJ	.	.	.
8AAL	.	.	.	.	8FL	4r	8cccL	8ee-L	8ee-L	.	.	8r
8CJ	.	.	.	.	16e-XL	.	8aaJ	8ccJ	8ccJ	.	.	16FLL
.	.	.	.	.	16dJJ	.	.	.	.	.	.	16FJJ
8FFL	.	.	.	.	8e-L	8r	8aaL	8ccL	8ccL	.	.	8FL
8FJ	.	.	.	.	16fL	16ddLL	8bb-J	8ddJ	8ddJ	.	.	8FJ
.	.	.	.	.	16e-JJ	16ccJJ	.	.	.	.	.	.
=31	=31	=31	=31	=31	=31	=31	=31	=31	=31	=31	=31	=31
8BB-L	8B-L	4.B-	4f	4dd	4d	2b-	4bb-	4dd	4dd	.	2.r	4F
8AAJ	8AJ	.	.	.	.	.	.	.	.	.	.	.
8GGL	4G	.	4g	4ee	4g	.	4ee	4ee	4ee	.	.	4r
8CJ	.	8G	.	.	.	.	.	.	.	.	.	.
8AAL	4F	4c	4a	4ff	4c	4a	4ff	4ff	4ff	.	.	4r
8FFJ	.	.	.	.	.	.	.	.	.	.	.	.
=32	=32	=32	=32	=32	=32	=32	=32	=32	=32	=32	=32	=32
8EEL	8EL	2c	8gL	4gg	2c	8gL	4gg	4gg	4gg	.	2.r	2.r
8DDJ	8DJ	.	8fJ	.	.	8fJ	.	.	.	.	.	.
8EEL	4E	.	4g	4cc	.	4g	4cc	4cc	4cc	.	.	.
8CCJ	.	.	.	.	.	.	.	.	.	.	.	.
8CL	4C	4G	4e	4b-	4G	4e	4b-	4b-	4b-	.	.	.
8EJ	.	.	.	.	.	.	.	.	.	.	.	.
=33	=33	=33	=33	=33	=33	=33	=33	=33	=33	=33	=33	=33
8FL	4F	2F	4c	4a	2F	4c	4a	4a	4a	.	2.r	2.r
8FFJ	.	.	.	.	.	.	.	.	.	.	.	.
8BB-L	2BB-	.	4B-	4dd	.	4B-	4dd	4dd	4dd	.	.	.
8CJ	.	.	.	.	.	.	.	.	.	.	.	.
8DL	.	4d	4f	4b-	4d	[4f	4b-	4b-	4b-	.	.	.
8BB-J	.	.	.	.	.	.	.	.	.	.	.	.
=34	=34	=34	=34	=34	=34	=34	=34	=34	=34	=34	=34	=34
!!pagebreak:original
8CL	8CL	4G	4f	2.g	4G	4f]	2.g	2.g	2.g	.	2.r	2.r
8BB-J	8BB-J	.	.	.	.	.	.	.	.	.	.	.
4C	2C	4c	8eL	.	4c	8eL	.	.	.	.	.	.
.	.	.	8dJ	.	.	8dJ	.	.	.	.	.	.
4CC	.	4B-	4e	.	4B-	4e	.	.	.	.	.	.
=35	=35	=35	=35	=35	=35	=35	=35	=35	=35	=35	=35	=35
4FF	2FF	2A	2c	2f	4A	4c	4f	2f	2f	.	8r	8r
.	.	.	.	.	.	.	.	.	.	.	16aLL	16ccLL
.	.	.	.	.	.	.	.	.	.	.	16gJJ	16b-JJ
4r	.	.	.	.	8r	4r	8r	.	.	.	8aL	8ccL
.	.	.	.	.	16fLL	.	8r	.	.	.	8b-J	8ddJ
.	.	.	.	.	16eJJ	.	.	.	.	.	.	.
4r	4r	4r	4r	4r	8fL	4r	4r	4r	4r	.	8b-L	8ddL
.	.	.	.	.	8fJ	.	.	.	.	.	8gJ	8b-J
=36	=36	=36	=36	=36	=36	=36	=36	=36	=36	=36	=36	=36
4FF	2.r	2.r	2.r	2.r	8fL	2.r	2.r	2.r	2.r	.	8aL	8ccL
.	.	.	.	.	8cJ	.	.	.	.	.	8fJ	8aJ
4r	.	.	.	.	8r	.	.	.	.	.	8fL	8aL
.	.	.	.	.	16cLL	.	.	.	.	.	8gJ	8b-J
.	.	.	.	.	16B-JJ	.	.	.	.	.	.	.
4r	.	.	.	.	8cL	.	.	.	.	.	8gL	8b-L
.	.	.	.	.	8cJ	.	.	.	.	.	8cJ	8gJ
=37	=37	=37	=37	=37	=37	=37	=37	=37	=37	=37	=37	=37
8FL	2.r	2.r	2.r	2.r	8cL	8cL	8cL	8r	8r	.	8fL	4.a
16AL	.	.	.	.	8AJ	8AJ	8AJ	16ffLL	16ffLL	.	16ccL	.
16GJJ	.	.	.	.	.	.	.	16eeJJ	16eeJJ	.	16b-JJ	.
8FL	.	.	.	.	4r	4r	8r	8ffL	8ffL	.	8ccL	.
8EJ	.	.	.	.	.	.	16aaLL	16aaL	16aaL	.	8cJ	16ffLL
.	.	.	.	.	.	.	16ggJJ	16ggJJ	16ggJJ	.	.	16eeJJ
8DL	.	.	.	.	8r	8r	8aaL	8aaL	8aaL	.	[4f	8ffL
8CJ	.	.	.	.	8a	16ffLL	8ddJ	8ddJ	8ddJ	.	.	8aJ
.	.	.	.	.	.	16eeJJ	.	.	.	.	.	.
=38	=38	=38	=38	=38	=38	=38	=38	=38	=38	=38	=38	=38
8BB-L	2.r	2.r	2.r	2.r	4dd	4ff	8ddL	8ddL	8ddL	.	8fL]	4.g
8GGJ	.	.	.	.	.	.	16ggL	16ggL	16ggL	.	16b-L	.
.	.	.	.	.	.	.	16ffJJ	16ffJJ	16ffJJ	.	16aJJ	.
4C	.	.	.	.	4r	4r	8ggL	8ggL	8ggL	.	8b-L	.
.	.	.	.	.	.	.	8eeJ	8eeJ	8eeJ	.	8cJ	16ccLL
.	.	.	.	.	.	.	.	.	.	.	.	16b-JJ
4CC	.	.	.	.	8r	8r	8eeL	8eeL	8eeL	.	8cL	16ccLL
.	.	.	.	.	.	.	.	.	.	.	.	16b-
.	.	.	.	.	8g	8cc	8ffJ	8ffJ	8ffJ	.	8cJ	16a
.	.	.	.	.	.	.	.	.	.	.	.	16gJJ
=39	=39	=39	=39	=39	=39	=39	=39	=39	=39	=39	=39	=39
!!pagebreak:original
4FF;	2.r;	2.r;	2.r;	2.r;	4a;	4cc;	4ff;	4ff;	4ff;	.	4A;	4f;
4r	.	.	.	.	4r	4r	4r	4r	4r	.	4r	4r
4r	.	.	.	.	4r	4r	4r	4r	4r	.	4r	4r
=||	=||	=||	=||	=||	=||	=||	=||	=||	=||	=||	=||	=||
*-	*-	*-	*-	*-	*-	*-	*-	*-	*-	*-	*-	*-
!!!system-decoration: s1,s2,s3,s4,s5,s6,s7,s8,s9,s10,s11,s12
